alternatives/kde-colorscheme/24/places/folder-music.svg

<?xml version="1.0" encoding="UTF-8" standalone="no"?>
<!-- Created with Inkscape (http://www.inkscape.org/) -->

<svg
   width="24"
   height="24"
   viewBox="0 0 24 24"
   version="1.1"
   id="svg5"
   inkscape:version="1.2.1 (1:1.2.1+202210291243+9c6d41e410)"
   sodipodi:docname="folder-music.svg"
   xmlns:inkscape="http://www.inkscape.org/namespaces/inkscape"
   xmlns:sodipodi="http://sodipodi.sourceforge.net/DTD/sodipodi-0.dtd"
   xmlns="http://www.w3.org/2000/svg"
   xmlns:svg="http://www.w3.org/2000/svg">
  <sodipodi:namedview
     id="namedview7"
     pagecolor="#ffffff"
     bordercolor="#000000"
     borderopacity="0.25"
     inkscape:showpageshadow="2"
     inkscape:pageopacity="0.0"
     inkscape:pagecheckerboard="0"
     inkscape:deskcolor="#d1d1d1"
     inkscape:document-units="px"
     showgrid="false"
     inkscape:zoom="34.375"
     inkscape:cx="12"
     inkscape:cy="12"
     inkscape:window-width="1920"
     inkscape:window-height="1018"
     inkscape:window-x="0"
     inkscape:window-y="28"
     inkscape:window-maximized="1"
     inkscape:current-layer="svg5" />
  <defs
     id="defs2">
    <style
       id="current-color-scheme"
       type="text/css">
         .ColorScheme-Highlight { color:#3daee9; }
     </style>
  </defs>
  <path
     d="M 2,3 C 1.4460005,3 1,3.4460005 1,4 v 18 c 0,0.554 0.4460005,1 1,1 h 20 c 0.554,0 1,-0.446 1,-1 V 7 C 23,6.4460005 22.554,6 22,6 H 12 L 10,3.5 C 9.6603625,3.169952 9.5539995,3 9,3 Z"
     style="opacity:0.3;fill:#000000;stroke-width:0.5"
     id="path1016"
     sodipodi:nodetypes="ssssssssccss" />
  <path
     id="rect184"
     style="fill:currentColor;fill-opacity:1;stroke-width:0.5"
     class="ColorScheme-Highlight"
     d="M 2,2 C 1.4460006,2 1,2.4460004 1,3 v 18 c 0,0.554 0.4460006,1 1,1 h 20 c 0.554,0 1,-0.446 1,-1 V 6 C 23,5.4460005 22.554,5 22,5 H 12 L 10,2.5 C 9.655655,2.1853323 9.554,2 9,2 Z"
     sodipodi:nodetypes="sccsssssccss" />
  <path
     id="path1511"
     style="opacity:0.4;fill:#000000;fill-opacity:1;stroke-width:0.5"
     d="M 2,2 C 1.4460017,2 1,2.4460016 1,3 V 9 C 1,8.4477166 1.4477169,8 2,8 H 9 C 9.5539984,8 9.6665983,7.8069877 10,7.5 L 12,5 10,2.5 C 9.6556551,2.1853329 9.5539983,2 9,2 Z" />
  <path
     id="path3081"
     style="opacity:0.2;fill:#ffffff;stroke-width:0.5"
     d="M 12,5 10,7.5 C 9.666598,7.806988 9.553999,8 9,8 H 2 C 1.4477164,8 1,8.447716 1,9 v 1 C 1,9.447716 1.4477164,9 2,9 H 9 C 9.553999,9 9.666597,8.806988 10,8.5 L 12,6 h 10 c 0.553998,0 1,0.446002 1,1 V 6 C 23,5.446002 22.553998,5 22,5 Z"
     sodipodi:nodetypes="ccssscssccscssc" />
  <path
     d="m 15.723446,9.0060275 c -0.05462,-0.010575 -0.116504,-0.00719 -0.179687,0.0098 l -5.085938,1.3652305 c -0.252734,0.06784 -0.457031,0.346047 -0.457031,0.623047 v 1.603516 4.4375 C 9.5501665,16.88538 9.0155396,16.87557 8.5105547,17.017751 7.4397532,17.320099 6.7909515,18.210234 7.061336,19.006032 c 0.2710605,0.795717 1.3588792,1.195342 2.4296875,0.892579 0.8818045,-0.249804 1.5014085,-0.910342 1.5078135,-1.607422 h 0.002 v -5.453125 l 4,-1.072266 v 4.279297 c -0.450622,-0.159711 -0.985249,-0.169521 -1.490234,-0.02734 -1.070802,0.302348 -1.719603,1.192483 -1.449219,1.988281 0.271061,0.795717 1.358879,1.195342 2.429687,0.892579 0.881803,-0.249804 1.501408,-0.910341 1.507813,-1.607422 h 0.002 v -6.29493 -1.6035165 c 0,-0.20775 -0.113497,-0.354994 -0.277344,-0.386719 z"
     style="color:#000000;clip-rule:nonzero;display:inline;overflow:visible;visibility:visible;opacity:0.6;isolation:auto;mix-blend-mode:normal;color-interpolation:sRGB;color-interpolation-filters:linearRGB;solid-color:#000000;solid-opacity:1;fill:#ffffff;fill-opacity:1;fill-rule:nonzero;stroke:none;stroke-width:1.0007;stroke-linecap:butt;stroke-linejoin:miter;stroke-miterlimit:4;stroke-dasharray:none;stroke-dashoffset:0;stroke-opacity:1;marker:none;color-rendering:auto;image-rendering:auto;shape-rendering:auto;text-rendering:auto;enable-background:accumulate"
     id="path2525" />
</svg>

<?xml version="1.0" encoding="UTF-8" standalone="no"?>
<!-- Created with Inkscape (http://www.inkscape.org/) -->

<svg
   width="24"
   height="24"
   viewBox="0 0 24 24"
   version="1.1"
   id="svg5"
   inkscape:version="1.2.2 (1:1.2.2+202305151914+b0a8486541)"
   sodipodi:docname="folder-music.svg"
   xmlns:inkscape="http://www.inkscape.org/namespaces/inkscape"
   xmlns:sodipodi="http://sodipodi.sourceforge.net/DTD/sodipodi-0.dtd"
   xmlns="http://www.w3.org/2000/svg"
   xmlns:svg="http://www.w3.org/2000/svg">
  <sodipodi:namedview
     id="namedview7"
     pagecolor="#ffffff"
     bordercolor="#000000"
     borderopacity="0.25"
     inkscape:showpageshadow="2"
     inkscape:pageopacity="0.0"
     inkscape:pagecheckerboard="0"
     inkscape:deskcolor="#d1d1d1"
     inkscape:document-units="px"
     showgrid="false"
     inkscape:zoom="33.583333"
     inkscape:cx="11.985112"
     inkscape:cy="12"
     inkscape:window-width="1920"
     inkscape:window-height="1008"
     inkscape:window-x="0"
     inkscape:window-y="0"
     inkscape:window-maximized="1"
     inkscape:current-layer="svg5" />
  <defs
     id="defs2">
    <style
       id="current-color-scheme"
       type="text/css">
         .ColorScheme-Text { color:#232629; }
         .ColorScheme-Highlight { color:#3daee9; }
     </style>
  </defs>
  <path
     d="M 2,3 C 1.4460005,3 1,3.4460005 1,4 v 18 c 0,0.554 0.4460005,1 1,1 h 20 c 0.554,0 1,-0.446 1,-1 V 7 C 23,6.4460005 22.554,6 22,6 H 12 L 10,3.5 C 9.6603625,3.169952 9.5539995,3 9,3 Z"
     style="opacity:0.3;fill:#000000;stroke-width:0.5"
     id="path1016"
     sodipodi:nodetypes="ssssssssccss" />
  <path
     id="rect184"
     style="fill:currentColor;fill-opacity:1;stroke-width:0.5"
     class="ColorScheme-Highlight"
     d="M 2,2 C 1.4460006,2 1,2.4460004 1,3 v 18 c 0,0.554 0.4460006,1 1,1 h 20 c 0.554,0 1,-0.446 1,-1 V 6 C 23,5.4460005 22.554,5 22,5 H 12 L 10,2.5 C 9.655655,2.1853323 9.554,2 9,2 Z"
     sodipodi:nodetypes="sccsssssccss" />
  <path
     id="path1511"
     style="opacity:0.4;fill:#000000;fill-opacity:1;stroke-width:0.5"
     d="M 2,2 C 1.4460017,2 1,2.4460016 1,3 V 9 C 1,8.4477166 1.4477169,8 2,8 H 9 C 9.5539984,8 9.6665983,7.8069877 10,7.5 L 12,5 10,2.5 C 9.6556551,2.1853329 9.5539983,2 9,2 Z" />
  <path
     id="path3081"
     style="opacity:0.2;fill:#ffffff;stroke-width:0.5"
     d="M 12,5 10,7.5 C 9.666598,7.806988 9.553999,8 9,8 H 2 C 1.4477164,8 1,8.447716 1,9 v 1 C 1,9.447716 1.4477164,9 2,9 H 9 C 9.553999,9 9.666597,8.806988 10,8.5 L 12,6 h 10 c 0.553998,0 1,0.446002 1,1 V 6 C 23,5.446002 22.553998,5 22,5 Z"
     sodipodi:nodetypes="ccssscssccscssc" />
  <path
     id="path920"
     style="opacity:0.6;fill:currentColor;stroke-width:2;stroke-linecap:round"
     class="ColorScheme-Text"
     d="m 15.636719,9 c -0.0302,0.00165 -0.06216,0.00713 -0.09375,0.015625 l -5.085938,1.365234 C 10.204297,10.448699 10,10.726907 10,11.003906 v 1.603516 4.4375 C 9.549377,16.885181 9.01475,16.875397 8.5097656,17.017578 7.4389652,17.319926 6.7901626,18.210062 7.0605469,19.005859 7.3316071,19.801576 8.4194271,20.2012 9.4902344,19.898438 10.372038,19.648634 10.991642,18.988095 10.998047,18.291016 H 11 v -5.453125 l 4,-1.072266 v 4.279297 c -0.450622,-0.159711 -0.98525,-0.169525 -1.490234,-0.02734 -1.070801,0.302348 -1.719603,1.192484 -1.449219,1.988281 0.271061,0.795717 1.35888,1.195341 2.429687,0.892579 0.881802,-0.249804 1.501408,-0.910342 1.507813,-1.607422 H 16 V 10.996094 9.3925781 C 16,9.1848283 15.886503,9.0375843 15.722656,9.0058594 15.695346,9.0005719 15.666915,8.9983519 15.636719,9 Z" />
</svg>
